X:85
T:Napanee Fiddler's Breakdown
R:reel
C:Bruce Osborne - July 2002
Z:bosborne@kos.net
M:2/4
L:1/8
K:Amaj
C/D/|E/D/E/F/ E/C/A,/C/|E/D/E/F/ Ec/d/|e/c/e/f/ e/c/A/c/|e/c/A/c/ BC/D/|
E/D/E/F/ E/C/A,/C/|E/D/E/F/ Ec/d/|e/c/e/f/ e/c/A/c/|B/G/c/B/ A:|
E/C/|A,/C/E/A/ c/f/e/c/|a/e/c/f/ e/c/A/c/|B/A/B/c/ d/B/G/B/|A/G/A/B/ c/A/E/C/|
A,/C/E/A/ c/f/e/c/|a/e/c/f/ e/c/A/c/|B/A/B/c/ d/B/G/B/|A/G/c/B/ A:|
